packages/kaspersky-hexa-ui-icons/src/iconsSVGs/16/UserGroup.svg

<svg width="16" height="16" viewBox="0 0 16 16" fill="none" xmlns="http://www.w3.org/2000/svg">
<path fill-rule="evenodd" clip-rule="evenodd" d="M8.38584 4.81995C8.38584 3.52528 9.43776 2.47876 10.7316 2.47876C12.0255 2.47876 13.0774 3.52528 13.0774 4.81995C13.0774 6.11462 12.0255 7.16114 10.7316 7.16114C9.43776 7.16114 8.38584 6.11462 8.38584 4.81995ZM10.7316 3.77876C10.1524 3.77876 9.68584 4.24658 9.68584 4.81995C9.68584 5.39331 10.1524 5.86114 10.7316 5.86114C11.3109 5.86114 11.7774 5.39331 11.7774 4.81995C11.7774 4.24658 11.3109 3.77876 10.7316 3.77876Z" fill="black"/>
<path d="M10.1286 13.506H13.4001C14.3114 13.506 15.0501 12.7672 15.0501 11.856V10.8153C15.0501 9.24132 13.7741 7.96533 12.2001 7.96533H9.10737C9.63365 8.27424 10.0454 8.70733 10.3061 9.26533H12.2001C13.0562 9.26533 13.7501 9.95929 13.7501 10.8153V11.856C13.7501 12.0493 13.5934 12.206 13.4001 12.206H10.6039C10.55 12.683 10.3823 13.1256 10.1286 13.506Z" fill="black"/>
<path fill-rule="evenodd" clip-rule="evenodd" d="M5.11948 2.49365C3.8256 2.49365 2.77368 3.54017 2.77368 4.83484C2.77368 6.12951 3.8256 7.17603 5.11948 7.17603C6.41336 7.17603 7.46528 6.12951 7.46528 4.83484C7.46528 3.54017 6.41336 2.49365 5.11948 2.49365ZM4.07368 4.83484C4.07368 4.26148 4.54023 3.79365 5.11948 3.79365C5.69873 3.79365 6.16528 4.26148 6.16528 4.83484C6.16528 5.40821 5.69873 5.87603 5.11948 5.87603C4.54023 5.87603 4.07368 5.40821 4.07368 4.83484Z" fill="black"/>
<path fill-rule="evenodd" clip-rule="evenodd" d="M3.8002 7.96536C2.22618 7.96536 0.950195 9.24135 0.950195 10.8154V11.8711C0.950195 12.7823 1.68893 13.5211 2.6002 13.5211H7.67272C8.58399 13.5211 9.32272 12.7823 9.32272 11.8711V10.8154C9.32272 9.24135 8.04673 7.96536 6.47272 7.96536H3.8002ZM2.2502 10.8154C2.2502 9.95932 2.94415 9.26536 3.8002 9.26536H6.47272C7.32876 9.26536 8.02272 9.95932 8.02272 10.8154V11.8711C8.02272 12.0644 7.86602 12.2211 7.67272 12.2211H2.6002C2.4069 12.2211 2.2502 12.0644 2.2502 11.8711V10.8154Z" fill="black"/>
</svg>

<svg xmlns="http://www.w3.org/2000/svg" width="16" height="16" fill="none" viewBox="0 0 16 16"><path fill="#000" fill-rule="evenodd" d="M8.3858 4.82c0-1.2947 1.052-2.3412 2.3458-2.3412s2.3458 1.0465 2.3458 2.3411-1.0519 2.3412-2.3458 2.3412S8.3858 6.1146 8.3858 4.82M5.1195 2.4936c-1.2939 0-2.3458 1.0465-2.3458 2.3411S3.8256 7.176 5.1195 7.176s2.3458-1.0465 2.3458-2.3412c0-1.2946-1.052-2.3411-2.3458-2.3411m5.6121 1.285c-.5792 0-1.0458.4679-1.0458 1.0412 0 .5734.4666 1.0412 1.0458 1.0412s1.0458-.4678 1.0458-1.0412-.4665-1.0411-1.0458-1.0411m-6.658 1.0561c0-.5733.4666-1.0411 1.0459-1.0411s1.0458.4678 1.0458 1.0411c0 .5734-.4666 1.0412-1.0458 1.0412s-1.0458-.4678-1.0458-1.0412m6.055 8.6712h3.2715c.9113 0 1.65-.7388 1.65-1.65v-1.0407c0-1.574-1.276-2.85-2.85-2.85H9.1074c.5263.309.938.742 1.1987 1.3h1.894c.8561 0 1.55.694 1.55 1.55v1.0407a.35.35 0 0 1-.35.35h-2.7962a2.93 2.93 0 0 1-.4753 1.3M3.8002 7.9654c-1.574 0-2.85 1.276-2.85 2.85v1.0557c0 .9112.7387 1.65 1.65 1.65h5.0725c.9113 0 1.65-.7388 1.65-1.65v-1.0557c0-1.574-1.276-2.85-2.85-2.85zm-1.55 2.85c0-.856.694-1.55 1.55-1.55h2.6725c.856 0 1.55.694 1.55 1.55v1.0557a.35.35 0 0 1-.35.35H2.6002a.35.35 0 0 1-.35-.35z"/></svg>
